X: 207
T: Johnnie in Nether Mains
M: 2/2
L: 1/8
Q:1/4=210
K:G % 1 sharps
% (c) SSF July 2006
D2|"G"G4 G2 Bd|"G"ed Bd "C"e2 g2|"G"d2 B2 B2 AG|"D"B2 A2 "G7"G2 D2|\
"G"G4 G2 Bd|"G"ed "C"Bd e2 f2|"G"g>a ga bg|"G"b2 "D"a2 "G"g2 :||\
d2|"G"g3a gf ed|"G"e2 d2 B2 d2|"G"g3a ba gb|"C"e4 "G"d2 ef|\
"C"ge ag "D"fd gf|"G"ed Bd "C"ef ga|"G"b3B "D7"cB AG|"G"B2 "D"A2 "G"G2 :||

%  <A name="D1X208"></A>
